public/assets/images/icons/black/export/folder-group-full.svg

<svg width="16" height="16" xmlns="http://www.w3.org/2000/svg" viewBox="0 0 16 16" shape-rendering="geometricPrecision"><defs><mask id="a"><rect fill="#fff" width="100%" height="100%"/><path d="M13.848-1.1L12.051.695l.286.287A4.455 4.455 0 0 0 9.23 5.236v.987h2.626v-.988c0-.491.191-.954.538-1.302l.03-.03 1.425 1.421 3.212-3.213L13.848-1.1z"/></mask></defs><path d="M13.848-.04l-.736.735.821.821h-.234l-.156.008A3.722 3.722 0 0 0 9.98 5.235v.237h1.126v-.237c0-.691.27-1.343.759-1.833a2.579 2.579 0 0 1 1.833-.759h.3l-.886.887.735.734L16 2.111 13.848-.04z" fill="#cb1800"/><g mask="url(#a)"><path d="M13.125 5.495v8h-12v-8h12m1-1h-14v10h14v-10z"/><path d="M7.175 2.995l-.299-1.49h-4l-.3 1.49H1.375v1h13.5v9.5l1-1v-9.5z"/><circle cx="4.769" cy="8.307" r=".858"/><path d="M5.159 9.573h-.783a.828.828 0 0 0-.825.828v1.074h2.436V10.4a.83.83 0 0 0-.828-.827z"/><circle cx="9.041" cy="9.324" r=".858"/><path d="M9.431 10.589h-.784a.827.827 0 0 0-.824.827v1.075h2.436v-1.075a.83.83 0 0 0-.828-.827z"/><circle cx="6.668" cy="7.358" r=".858"/><path d="M7.886 10.525V9.45a.83.83 0 0 0-.827-.827h-.785a.825.825 0 0 0-.821.794c.425.128.737.517.737.983v.125h1.696z"/></g></svg>

<?xml version="1.0"?><!DOCTYPE svg PUBLIC "-//W3C//DTD SVG 1.1//EN" "http://www.w3.org/Graphics/SVG/1.1/DTD/svg11.dtd"><svg width="16px" height="16px" xmlns="http://www.w3.org/2000/svg" viewBox="0 0 16 16" shape-rendering="geometricPrecision" fill="#000"><defs><mask id="export-path"><rect fill="#fff" width="100%" height="100%"/><path d="M13.848-1.1l-1.797,1.795l0.286,0.287c-1.812,0.575-3.107,2.263-3.107,4.254v0.987h2.626 V5.235c0-0.491,0.191-0.954,0.538-1.302c0.01-0.01,0.021-0.02,0.03-0.03l1.425,1.421l3.212-3.213L13.848-1.1z" fill="#000"/></mask></defs><path id="export" display="inline" d="M13.848-0.04l-0.736,0.735l0.821,0.821h-0.234 l-0.156,0.008c-1.978,0.084-3.563,1.714-3.563,3.711v0.237h1.126V5.235c0-0.691,0.27-1.343,0.759-1.833 c0.49-0.489,1.141-0.759,1.833-0.759h0.237V2.643h0.063L13.112,3.53l0.735,0.734L16,2.111L13.848-0.04z" fill="#cb1800"/><g mask="url(#export-path)"><path d="M13.125,5.495v8h-12v-8H13.125 M14.125,4.495h-14v10h14V4.495L14.125,4.495z"/><polygon points="7.175,2.995 6.876,1.505 2.876,1.505 2.576,2.995 1.375,2.995 1.375,3.995 2.375,3.995 7.375,3.995 14.875,3.995 14.875,13.495 15.875,12.495 15.875,2.995"/><g><circle cx="4.769" cy="8.307" r="0.858"/><path d="M5.159,9.573H4.376c-0.455,0-0.825,0.373-0.825,0.828v1.074h2.436V10.4C5.987,9.945,5.614,9.573,5.159,9.573z"/><circle cx="9.041" cy="9.324" r="0.858"/><path d="M9.431,10.589H8.647c-0.455,0-0.824,0.373-0.824,0.827v1.075h2.436v-1.075C10.259,10.962,9.886,10.589,9.431,10.589z"/><circle cx="6.668" cy="7.358" r="0.858"/><path d="M7.886,10.525V9.45c0-0.454-0.372-0.827-0.827-0.827H6.274c-0.444,0-0.803,0.354-0.821,0.794 C5.878,9.545,6.19,9.934,6.19,10.4v0.125H7.886z"/></g></g></svg>
